X:1
T:Title
%%score { ( 1 4 ) | ( 2 3 ) }
L:1/8
Q:1/4=116
M:3/4
K:F
V:1 treble nm="Grand Piano"
V:4 treble 
V:2 bass 
V:3 bass 
V:1
 [FA]2 B2 [_A=B]2 | [Ac]2 A2 c2 | d2 B2 d2 | c6 | c2- [A,Fc]2 [Gc]2 | c2- [A,Fc]2 [Ec]2 | %6
w: O.~F.~Pugh * *||||||
 c2 d2 c2 | [Ec]6 | c2 f2 [_Af]2 | [Af]2 c2 c2 | d2 e2 f2 | f6 | c4 z2 | F4 z2 | F4 E2 | F6 | %16
w: ||||||||||
[M:4/4] d4 A2 A>A | d2- [Dd-][Fd] [E^c]4 | [Fd]6 D>E | F4 z2 c2 | c8- | c6 z2 | %22
w: ||||||
[M:3/4] [Ac]2 z2 z2 | f4 f2 | c4 .[DG=B]2 | [CEc]6 | c2 ^c2 [Fd]2 | c2 z2 z2 | F2 z2 z2 | %29
w: |||||||
 [F,A,F]6 |] %30
w: |
V:2
 z2 G2 F,2 | z2[K:treble] F2 [F,A,F]2 | z2 D2 [B,F]2 | [F,A,F]6 | G,2 z2 z2 | B,2 z2 z2 | %6
 [F,F]2- [F,B,F]2 [F,A,F]2 | G,4 z2 | [A,F]2 [B,G]2[K:bass] [F,=B,]2 | %9
 C2[K:treble] [A,F]2 [F,A,F]2 | [B,F]4 z2 | [A,CF]6 | F4 z2 | [A,C]2 [F,A,]2 [B,,B,]2 | %14
 [C,A,C]4 [C,G,B,]2 | [F,A,]6 |[M:4/4] [D,A,]8 | [B,,_A,]4 [A,,=A,]4 | [D,A,]8 | %19
 [F,,C,F,]6 [F,A,F][F,A,] | [C,G,]2 [C,A,]2 [C,B,]2 [C,G,B,]2 | [F,A,]6 z2 | %22
[M:3/4] z2[K:treble] F2 [B,D]2 | [A,CF]4 [A,CF]2 | [G,CE]4[K:bass] z F | C,6 | [F,A,F]4 [B,,B,]2 | %27
 A,2 _A,2 [C,G,]2 | z2 E2 C,2 | F,,6 |] %30
V:3
 F,4 z2 | F,4[K:treble] z2 | [B,F]4 z2 | x6 | C,4 [C,B,]2 | C,4 [C,G,]2 | A,2 z2 z2 | C,6 | %8
 F,4[K:bass] z2 | F,4[K:treble] z2 | z2 C2 [B,DF]2 | x6 | [F,A,]2 G,2 [_A,=B,]2 | x6 | x6 | x6 | %16
[M:4/4] x8 | x8 | x8 | x8 | x8 | x8 |[M:3/4] F,4[K:treble] z2 | x6 | z2 z2[K:bass] F,,2 | x6 | x6 | %27
 C,4 z2 | C,4 z2 | x6 |] %30
V:4
 x6 | x6 | x6 | x6 | E2 z2 z2 | E2 z2 z2 | x6 | z2 z2 B,2 | x6 | x6 | x6 | x6 | z2 B,2 F2 | %13
 z2 C2 [DF]2 | x6 | x6 |[M:4/4] F8 | F2 z2 z4 | x8 | A,3- [A,-F] [A,A]2 z F | E2 F2 G2 E2 | F6 z2 | %22
[M:3/4] C2- [CA]2 F2 | x6 | x6 | x6 | x6 | F2- [F=B]2 [E_B]2 | [CA]4 [B,EG]2 | x6 |] %30

